modules/boxicons-solid/icons/magic-wand.svg

<svg xmlns="http://www.w3.org/2000/svg" width="24" height="24" viewBox="0 0 24 24"><path d="M9.5 6l1-.666 1 .666-.334-1.167.834-.708L11 4l-.5-1-.5 1-1 .125.834.708zm9.834 8.666L18.5 13l-.834 1.666-1.666.209 1.389 1.182L16.834 18l1.666-1.111L20.166 18l-.555-1.943L21 14.875zM4.667 9L6 8.111 7.333 9l-.444-1.556L8 6.5l-1.333-.167L6 5l-.667 1.333L4 6.5l1.111.944zm16.04-2.707l-3-3a1.03 1.03 0 0 0-1.414 0l-13 13a.999.999 0 0 0 0 1.414l3 3a1 1 0 0 0 1.414 0l13-13a.999.999 0 0 0 0-1.414zm-5.417 4.003L13.685 8.73 17 5.414 18.586 7l-3.296 3.296z"/></svg>

<svg xmlns="http://www.w3.org/2000/svg" width="24" height="24" viewBox="0 0 24 24"><path d="M9.5 6L10.5 5.334 11.5 6 11.166 4.833 12 4.125 11 4 10.5 3 10 4 9 4.125 9.834 4.833zM19.334 14.666L18.5 13 17.666 14.666 16 14.875 17.389 16.057 16.834 18 18.5 16.889 20.166 18 19.611 16.057 21 14.875zM4.667 9L6 8.111 7.333 9 6.889 7.444 8 6.5 6.667 6.333 6 5 5.333 6.333 4 6.5 5.111 7.444zM20.707 6.293l-3-3c-.375-.375-1.039-.375-1.414 0l-13 13c-.391.391-.391 1.023 0 1.414l3 3C6.481 20.895 6.735 21 7 21s.52-.105.707-.293l13-13C21.098 7.316 21.098 6.684 20.707 6.293zM15.29 10.296l-1.605-1.566L17 5.414 18.586 7 15.29 10.296z"/></svg>
